resources/icons/percent.svg

<svg version="1.1" id="Layer_1" xmlns="http://www.w3.org/2000/svg" x="0" y="0" viewBox="0 0 14 16" xml:space="preserve"><style>.percent-st0{fill:none}.percent-st1{fill:currentColor}</style><g id="percent" transform="translate(-666 -1061)"><g id="Прямоугольник_скругл._углы_771"><path class="percent-st0" d="M674 1074c0-1.7 1.3-3 3-3s3 1.3 3 3-1.3 3-3 3-3-1.3-3-3zm-8-10c0-1.7 1.3-3 3-3s3 1.3 3 3-1.3 3-3 3-3-1.3-3-3z"/><path class="percent-st1" d="M677 1075.5c.8 0 1.5-.7 1.5-1.5s-.7-1.5-1.5-1.5-1.5.7-1.5 1.5.7 1.5 1.5 1.5m-8-10c.8 0 1.5-.7 1.5-1.5s-.7-1.5-1.5-1.5-1.5.7-1.5 1.5.7 1.5 1.5 1.5m8 11.5c-1.7 0-3-1.3-3-3s1.3-3 3-3 3 1.3 3 3-1.3 3-3 3zm-8-10c-1.7 0-3-1.3-3-3s1.3-3 3-3 3 1.3 3 3-1.3 3-3 3z"/></g><g id="Прямоугольник_скругл._углы_773"><path class="percent-st0" d="M677.5 1061.1c.5.3.6.9.4 1.3l-8 14c-.3.5-.9.6-1.4.4-.5-.3-.6-.9-.4-1.3l8-14c.3-.5.9-.6 1.4-.4z"/><path class="percent-st1" d="M677 1061c.2 0 .3 0 .5.1.5.3.6.9.4 1.4l-8 14c-.2.3-.5.5-.9.5-.2 0-.3 0-.5-.1-.5-.3-.6-.9-.4-1.4l8-14c.2-.3.6-.5.9-.5z"/></g></g></svg>

<?xml version="1.0" encoding="utf-8"?>
<!-- Generator: Adobe Illustrator 22.0.1, SVG Export Plug-In . SVG Version: 6.00 Build 0)  -->
<svg version="1.1" id="Layer_1" xmlns="http://www.w3.org/2000/svg" xmlns:xlink="http://www.w3.org/1999/xlink" x="0px" y="0px"
	 viewBox="0 0 14 16" style="enable-background:new 0 0 14 16;" xml:space="preserve">
<style type="text/css">
	.percent-st0{fill:none;}
	.percent-st1{fill:currentColor;}
</style>
<g id="percent" transform="translate(-666 -1061)">
	<g id="Прямоугольник_скругл._углы_771">
		<path class="percent-st0" d="M674,1074c0-1.7,1.3-3,3-3s3,1.3,3,3s-1.3,3-3,3S674,1075.7,674,1074z M666,1064c0-1.7,1.3-3,3-3s3,1.3,3,3
			s-1.3,3-3,3S666,1065.7,666,1064z"/>
		<path class="percent-st1" d="M677,1075.5c0.8,0,1.5-0.7,1.5-1.5c0-0.8-0.7-1.5-1.5-1.5c-0.8,0-1.5,0.7-1.5,1.5
			C675.5,1074.8,676.2,1075.5,677,1075.5 M669,1065.5c0.8,0,1.5-0.7,1.5-1.5c0-0.8-0.7-1.5-1.5-1.5c-0.8,0-1.5,0.7-1.5,1.5
			C667.5,1064.8,668.2,1065.5,669,1065.5 M677,1077c-1.7,0-3-1.3-3-3c0-1.7,1.3-3,3-3s3,1.3,3,3C680,1075.7,678.7,1077,677,1077z
			 M669,1067c-1.7,0-3-1.3-3-3c0-1.7,1.3-3,3-3c1.7,0,3,1.3,3,3C672,1065.7,670.7,1067,669,1067z"/>
	</g>
	<g id="Прямоугольник_скругл._углы_773">
		<path class="percent-st0" d="M677.5,1061.1c0.5,0.3,0.6,0.9,0.4,1.3c0,0,0,0,0,0l-8,14c-0.3,0.5-0.9,0.6-1.4,0.4c-0.5-0.3-0.6-0.9-0.4-1.3
			c0,0,0,0,0,0l8-14C676.4,1061,677,1060.9,677.5,1061.1z"/>
		<path class="percent-st1" d="M677,1061c0.2,0,0.3,0,0.5,0.1c0.5,0.3,0.6,0.9,0.4,1.4l-8,14c-0.2,0.3-0.5,0.5-0.9,0.5c-0.2,0-0.3,0-0.5-0.1
			c-0.5-0.3-0.6-0.9-0.4-1.4l8-14C676.3,1061.2,676.7,1061,677,1061z"/>
	</g>
</g>
</svg>
